X: 1
T: Paddy Breen's
M: 6/8
L: 1/8
R: jig
K: Gmaj
G2B G2B|G2B ded|BAB E2D|1FAG FED:|2FAF ~G3||
GBd ~g3|f2e e2d|e2d e2f|e2d BAB|
GBd g2f|f2e e2d|BAB E2D|FAF ~G3:|
